assets/stickers/emoticons/stickers/imgly_sticker_emoticons_question.svg

<svg height="62" viewBox="0 0 62 62" width="62" xmlns="http://www.w3.org/2000/svg"><g fill="none"><g transform="translate(0 3)"><path d="m61.3 35.1c0 13-11.9 23.5-30.3 23.5s-30.3-10.5-30.3-23.5 11.9-32.5 30.3-32.5 30.3 19.5 30.3 32.5z" fill="#f7910b"/><path d="m61.3 35.1c0 13-11.9 19.5-30.3 19.5s-30.3-6.5-30.3-19.5 11.9-34.5 30.3-34.5 30.3 21.5 30.3 34.5z" fill="#f7910b"/><path d="m31 .6c18.4 0 30.3 21.5 30.3 34.5s-11.9 19.5-30.3 19.5" fill="#f9a908"/><path d="m61.3 35.1c0 13-11.9 19.5-30.3 19.5s-30.3-6.5-30.3-19.5 11.9-32.5 30.3-32.5 30.3 19.5 30.3 32.5z" fill="#f9a908"/><path d="m.7 35.1c0-13 11.9-32.5 30.3-32.5" fill="#f9c55d"/><path d="m31 2.6c18.4 0 30.3 19.5 30.3 32.5s-11.9 23.5-30.3 23.5" fill="#f7910b"/><path d="m31 2.6c18.4 0 30.3 19.5 30.3 32.5" fill="#ea7103"/><ellipse cx="9.3" cy="32.1" fill="#f7910b" rx="1" ry="1"/><ellipse cx="4.8" cy="34.1" fill="#f7910b" rx="1.1" ry="1.1"/><ellipse cx="7.8" cy="30.1" fill="#f7910b" rx="1" ry="1"/><circle cx="12.4" cy="31.9" fill="#f7910b" r="1"/><circle cx="51.6" cy="32.4" fill="#f9a908" r="1"/><circle cx="54.1" cy="33.8" fill="#f9a908" r="1"/><circle cx="48.8" cy="25" fill="#f9a908" r="1"/><ellipse cx="48.3" cy="36.6" fill="#f9a908" rx="1.3" ry="1.3"/><circle cx="55.5" cy="36.7" fill="#f9a908" r="1"/><ellipse cx="8.3" cy="36.1" fill="#f7910b" rx="1" ry="1"/><circle cx="9.1" cy="27.7" fill="#f7910b" r="1"/><g fill="#f9a908"><ellipse cx="3.8" cy="13.9" rx="1.1" ry="1.1"/><ellipse cx="7" cy="10.4" rx="1" ry="1"/><circle cx="58.2" cy="16.3" r="1"/><ellipse cx="57.4" cy="13.4" rx="1" ry="1"/><circle cx="60" cy="13.9" r="1"/><ellipse cx="5" cy="16.9" rx="1" ry="1"/></g><path d="m38.2 45.5c0 2.6-3.3 7.2-7.4 7.2s-7.4-4.6-7.4-7.2" fill="#f7910b"/><g transform="translate(15 18)"><ellipse cx="4.6" cy="5.6" fill="#d87703" rx="3.5" ry="3.5"/><path d="m30.9 5.6c0 1.9-1.6 3.5-3.5 3.5s-3.5-1.6-3.5-3.5 1.6-3.5 3.5-3.5c2 0 3.5 1.6 3.5 3.5z" fill="#d87703"/><ellipse cx="4.6" cy="4.6" fill="#1e4784" rx="3.5" ry="3.5"/><path d="m4.6 1.1c1.9 0 3.5 1.6 3.5 3.5s-1.6 3.5-3.5 3.5" fill="#00233f"/><path d="m30.9 4.6c0 1.9-1.6 3.5-3.5 3.5s-3.5-1.6-3.5-3.5 1.6-3.5 3.5-3.5c2 0 3.5 1.6 3.5 3.5z" fill="#1e4784"/><path d="m27.4 1.1c1.9 0 3.5 1.6 3.5 3.5s-1.6 3.5-3.5 3.5" fill="#00233f"/><path d="m.5 5.4c0-2.3 1.8-5.1 4.1-5.1s4.1 2.8 4.1 5.1" fill="#f9a908"/><path d="m23.3 5.4c0-2.3 1.8-5.1 4.1-5.1s4.1 2.8 4.1 5.1" fill="#f7910b"/></g><g transform="translate(11 26)"><path d="m15.8 2.4c0 1.2-3.5.7-7.8.7s-7.8.6-7.8-.7c0-1.2 3.5-2.2 7.8-2.2s7.8 1 7.8 2.2z" fill="#f9c55d"/><path d="m39.8 2.4c0 1.2-3.5.7-7.8.7s-7.8.6-7.8-.7c0-1.2 3.5-2.2 7.8-2.2s7.8 1 7.8 2.2z" fill="#f9a908"/></g></g><g fill="#19bca4" transform="translate(18 11)"><path d="m4.3 11.1c.2.9-.1.5-1.4.7-1.4.2-2.4.9-2.6 0s.8-1.9 2.2-2.1c1.3-.3 1.6.5 1.8 1.4z"/><path d="m21.8 2.1c0 1 .1.5 1.5.5s2.5.5 2.5-.5-1.1-1.7-2.5-1.7-1.5.8-1.5 1.7z"/></g><path d="m49.1 20v-1c-.1-2.2.6-4.3 2.5-6.6 1.3-1.6 2.4-3 2.4-4.4 0-1.5-1-2.4-3.1-2.5-1.4 0-3.1.5-4.2 1.3l-1.4-4.6c1.5-.9 4.1-1.7 7.1-1.7 5.6 0 8.1 3.1 8.1 6.6 0 3.2-1.8 5.3-3.5 7.1-1.6 1.7-2 3.4-2 5.3v.5zm-1.1 6c0-2.2 1.6-3.9 3.8-3.9 2.3 0 3.8 1.6 3.8 3.9 0 2.2-1.5 3.9-3.8 3.9s-3.8-1.6-3.8-3.9z" fill="#24b9ed"/><path d="m38 38h-14c-.6 0-1-.4-1-1s.4-1 1-1h14c.6 0 1 .4 1 1s-.4 1-1 1z" fill="#02243e"/><g fill="#1491dd" transform="translate(50)"><path d="m1.7 22.2c-.1 0 0 0 0 0v7.7c2.3 0 3.8-1.7 3.8-3.9s-1.5-3.8-3.8-3.8z"/><path d="m2.2.4h-1.2v5c2 .2 2.8 1.2 2.8 2.6s-.5 2.2-1.9 3.8c-.1.1-.3.4-1 1.2v7h4v-.6c0-1.9.4-3.6 2-5.3 1.6-1.8 3.5-3.9 3.5-7.1.1-3.5-2.6-6.6-8.2-6.6z"/></g></g></svg>

<?xml version="1.0" encoding="UTF-8"?>
<svg width="62px" height="62px" viewBox="0 0 62 62" version="1.1" xmlns="http://www.w3.org/2000/svg" xmlns:xlink="http://www.w3.org/1999/xlink">
    <!-- Generator: Sketch 43.1 (39012) - http://www.bohemiancoding.com/sketch -->
    <title>imgly_sticker_emoticons_question</title>
    <desc>Created with Sketch.</desc>
    <defs></defs>
    <g id="Page-1" stroke="none" stroke-width="1" fill="none" fill-rule="evenodd">
        <g id="question" fill-rule="nonzero">
            <g id="Group" transform="translate(0.000000, 3.000000)">
                <g>
                    <path d="M61.3,35.1 C61.3,48.1 49.4,58.6 31,58.6 C12.6,58.6 0.7,48.1 0.7,35.1 C0.7,22.1 12.6,2.6 31,2.6 C49.4,2.6 61.3,22.1 61.3,35.1 Z" id="Shape" fill="#F7910B"></path>
                    <path d="M61.3,35.1 C61.3,48.1 49.4,54.6 31,54.6 C12.6,54.6 0.7,48.1 0.7,35.1 C0.7,22.1 12.6,0.6 31,0.6 C49.4,0.6 61.3,22.1 61.3,35.1 Z" id="Shape" fill="#F7910B"></path>
                    <path d="M31,0.6 C49.4,0.6 61.3,22.1 61.3,35.1 C61.3,48.1 49.4,54.6 31,54.6" id="Shape" fill="#F9A908"></path>
                    <path d="M61.3,35.1 C61.3,48.1 49.4,54.6 31,54.6 C12.6,54.6 0.7,48.1 0.7,35.1 C0.7,22.1 12.6,2.6 31,2.6 C49.4,2.6 61.3,22.1 61.3,35.1 Z" id="Shape" fill="#F9A908"></path>
                    <path d="M0.7,35.1 C0.7,22.1 12.6,2.6 31,2.6" id="Shape" fill="#F9C55D"></path>
                    <path d="M31,2.6 C49.4,2.6 61.3,22.1 61.3,35.1 C61.3,48.1 49.4,58.6 31,58.6" id="Shape" fill="#F7910B"></path>
                    <path d="M31,2.6 C49.4,2.6 61.3,22.1 61.3,35.1" id="Shape" fill="#EA7103"></path>
                    <ellipse id="Oval" fill="#F7910B" cx="9.3" cy="32.1" rx="1" ry="1"></ellipse>
                    <ellipse id="Oval" fill="#F7910B" cx="4.8" cy="34.1" rx="1.1" ry="1.1"></ellipse>
                    <ellipse id="Oval" fill="#F7910B" cx="7.8" cy="30.1" rx="1" ry="1"></ellipse>
                    <circle id="Oval" fill="#F7910B" cx="12.4" cy="31.9" r="1"></circle>
                    <circle id="Oval" fill="#F9A908" cx="51.6" cy="32.4" r="1"></circle>
                    <circle id="Oval" fill="#F9A908" cx="54.1" cy="33.8" r="1"></circle>
                    <circle id="Oval" fill="#F9A908" cx="48.8" cy="25" r="1"></circle>
                    <ellipse id="Oval" fill="#F9A908" cx="48.3" cy="36.6" rx="1.3" ry="1.3"></ellipse>
                    <circle id="Oval" fill="#F9A908" cx="55.5" cy="36.7" r="1"></circle>
                    <ellipse id="Oval" fill="#F7910B" cx="8.3" cy="36.1" rx="1" ry="1"></ellipse>
                    <circle id="Oval" fill="#F7910B" cx="9.1" cy="27.7" r="1"></circle>
                    <ellipse id="Oval" fill="#F9A908" cx="3.8" cy="13.9" rx="1.1" ry="1.1"></ellipse>
                    <ellipse id="Oval" fill="#F9A908" cx="7" cy="10.4" rx="1" ry="1"></ellipse>
                    <circle id="Oval" fill="#F9A908" cx="58.2" cy="16.3" r="1"></circle>
                    <ellipse id="Oval" fill="#F9A908" cx="57.4" cy="13.4" rx="1" ry="1"></ellipse>
                    <circle id="Oval" fill="#F9A908" cx="60" cy="13.9" r="1"></circle>
                    <ellipse id="Oval" fill="#F9A908" cx="5" cy="16.9" rx="1" ry="1"></ellipse>
                    <path d="M38.2,45.5 C38.2,48.1 34.9,52.7 30.8,52.7 C26.7,52.7 23.4,48.1 23.4,45.5" id="Shape" fill="#F7910B"></path>
                    <g transform="translate(15.000000, 18.000000)">
                        <ellipse id="Oval" fill="#D87703" cx="4.6" cy="5.6" rx="3.5" ry="3.5"></ellipse>
                        <path d="M30.9,5.6 C30.9,7.5 29.3,9.1 27.4,9.1 C25.5,9.1 23.9,7.5 23.9,5.6 C23.9,3.7 25.5,2.1 27.4,2.1 C29.4,2.1 30.9,3.7 30.9,5.6 Z" id="Shape" fill="#D87703"></path>
                        <ellipse id="Oval" fill="#1E4784" cx="4.6" cy="4.6" rx="3.5" ry="3.5"></ellipse>
                        <path d="M4.6,1.1 C6.5,1.1 8.1,2.7 8.1,4.6 C8.1,6.5 6.5,8.1 4.6,8.1" id="Shape" fill="#00233F"></path>
                        <path d="M30.9,4.6 C30.9,6.5 29.3,8.1 27.4,8.1 C25.5,8.1 23.9,6.5 23.9,4.6 C23.9,2.7 25.5,1.1 27.4,1.1 C29.4,1.1 30.9,2.7 30.9,4.6 Z" id="Shape" fill="#1E4784"></path>
                        <path d="M27.4,1.1 C29.3,1.1 30.9,2.7 30.9,4.6 C30.9,6.5 29.3,8.1 27.4,8.1" id="Shape" fill="#00233F"></path>
                        <path d="M0.5,5.4 C0.5,3.1 2.3,0.3 4.6,0.3 C6.9,0.3 8.7,3.1 8.7,5.4" id="Shape" fill="#F9A908"></path>
                        <path d="M23.3,5.4 C23.3,3.1 25.1,0.3 27.4,0.3 C29.7,0.3 31.5,3.1 31.5,5.4" id="Shape" fill="#F7910B"></path>
                    </g>
                    <g transform="translate(11.000000, 26.000000)" id="Shape">
                        <path d="M15.8,2.4 C15.8,3.6 12.3,3.1 8,3.1 C3.7,3.1 0.2,3.7 0.2,2.4 C0.2,1.2 3.7,0.2 8,0.2 C12.3,0.2 15.8,1.2 15.8,2.4 Z" fill="#F9C55D"></path>
                        <path d="M39.8,2.4 C39.8,3.6 36.3,3.1 32,3.1 C27.7,3.1 24.2,3.7 24.2,2.4 C24.2,1.2 27.7,0.2 32,0.2 C36.3,0.2 39.8,1.2 39.8,2.4 Z" fill="#F9A908"></path>
                    </g>
                </g>
                <g transform="translate(18.000000, 8.000000)" id="Shape" fill="#19BCA4">
                    <path d="M4.3,11.1 C4.5,12 4.2,11.6 2.9,11.8 C1.5,12 0.5,12.7 0.3,11.8 C0.1,10.9 1.1,9.9 2.5,9.7 C3.8,9.4 4.1,10.2 4.3,11.1 Z"></path>
                    <path d="M21.8,2.1 C21.8,3.1 21.9,2.6 23.3,2.6 C24.7,2.6 25.8,3.1 25.8,2.1 C25.8,1.1 24.7,0.4 23.3,0.4 C21.9,0.4 21.8,1.2 21.8,2.1 Z"></path>
                </g>
            </g>
            <path d="M49.1,20 L49.1,19 C49,16.8 49.7,14.7 51.6,12.4 C52.9,10.8 54,9.4 54,8 C54,6.5 53,5.6 50.9,5.5 C49.5,5.5 47.8,6 46.7,6.8 L45.3,2.2 C46.8,1.3 49.4,0.5 52.4,0.5 C58,0.5 60.5,3.6 60.5,7.1 C60.5,10.3 58.7,12.4 57,14.2 C55.4,15.9 55,17.6 55,19.5 L55,20 L49.1,20 Z M48,26 C48,23.8 49.6,22.1 51.8,22.1 C54.1,22.1 55.6,23.7 55.6,26 C55.6,28.2 54.1,29.9 51.8,29.9 C49.5,29.9 48,28.3 48,26 Z" id="Shape" fill="#24B9ED"></path>
            <path d="M38,38 L24,38 C23.4,38 23,37.6 23,37 C23,36.4 23.4,36 24,36 L38,36 C38.6,36 39,36.4 39,37 C39,37.6 38.6,38 38,38 Z" id="Shape" fill="#02243E"></path>
            <g id="Group" transform="translate(50.000000, 0.000000)" fill="#1491DD">
                <path d="M1.7,22.2 C1.6,22.2 1.7,22.2 1.7,22.2 L1.7,29.9 C1.7,29.9 1.5,29.9 1.7,29.9 C4,29.9 5.5,28.2 5.5,26 C5.5,23.8 4,22.2 1.7,22.2 Z" id="Shape"></path>
                <path d="M2.2,0.4 L1,0.4 L1,5.4 C3,5.6 3.8,6.6 3.8,8 C3.8,9.4 3.3,10.2 1.9,11.8 C1.8,11.9 1.6,12.2 0.9,13 L0.9,20 L4.9,20 L4.9,19.4 C4.9,17.5 5.3,15.8 6.9,14.1 C8.5,12.3 10.4,10.2 10.4,7 C10.5,3.5 7.8,0.4 2.2,0.4 Z" id="Shape"></path>
            </g>
        </g>
    </g>
</svg>
